X: 20522
M: 6/8
L: 1/8
K: F
|: e/f/ |\
gec cdc | afd c>dc | .b.a.g .a.g.f | efg c2c |\
dBd dfb | cAc cfa | .b.a.g .a.g.f | cfe f2 :|


